icons/default/Throw.svg

<g clip-path="url(#clip0)">
	<path
		d="M22.9606 25.1097L26.3041 24.843L29.1141 17.8893L22.624 15.2666L15.0194 12.7329L9.16117 15.2191L4.77308 22.0743L6.16382 22.6363L7.65298 21.6203L8.48172 23.573L9.40887 23.9477L10.6218 22.2807L12.2094 19.6866L13.6096 17.556L15.6513 17.8418L17.5056 18.5911L13.6001 20.2486L11.2727 22.0045L12.0125 22.8427L12.9397 23.2174L14.2415 22.6649L15.356 22.576L17.3977 22.8617L19.252 23.6111L21.1063 24.3604L22.9606 25.1097Z"
		fill="white" />
	<path
		d="M5.16192 23.3098C5.72239 23.5363 6.37006 23.4162 6.81208 23.0043L7.50777 22.3557L7.46327 22.5179C7.33958 22.9694 7.40012 23.4415 7.63369 23.8471C7.8666 24.2529 8.24421 24.5435 8.69698 24.6629C9.43239 24.8581 10.2021 24.5587 10.629 23.8894L11.1583 22.9293C11.5529 23.6329 12.3643 24.0017 13.1629 23.8073L15.4157 23.2594C16.5571 22.9824 17.7716 23.1987 18.748 23.8505L19.924 24.6369C20.7773 25.2077 21.7724 25.5117 22.8001 25.516L26.0274 25.5275L25.9294 25.77C25.8258 26.0263 25.9498 26.3175 26.2057 26.4209L27.5964 26.9829L27.4091 27.4465C27.3055 27.7028 27.4294 27.994 27.6853 28.0974L32.3211 29.9707C32.577 30.0741 32.8684 29.9508 32.972 29.6945L36.7187 20.4229C36.8223 20.1665 36.6984 19.8754 36.4425 19.772L31.8067 17.8986L29.9524 17.1493C29.6965 17.0459 29.405 17.1692 29.3014 17.4255L20.4542 13.8525L14.7039 12.0681C14.5908 12.0331 14.4692 12.039 14.3605 12.0851L9.1532 14.2951C9.06533 14.3324 8.99037 14.3938 8.9367 14.4719L4.46053 20.9766C4.19035 21.3689 4.11454 21.8555 4.25164 22.3116C4.38874 22.7677 4.7206 23.1315 5.16192 23.3098V23.3098ZM31.8956 19.0131L35.6042 20.5118L32.2322 28.8562L28.5236 27.3576L31.8956 19.0131ZM8.95415 23.6969C8.76074 23.6457 8.5999 23.5219 8.50061 23.3486C8.40113 23.1757 8.3752 22.9743 8.42778 22.7815L8.89894 21.059L12.1827 17.9989L13.1351 18.1962L11.749 19.8088C11.7266 19.8348 11.7069 19.8635 11.6905 19.8935L9.76993 23.3783C9.59571 23.652 9.26741 23.7798 8.95415 23.6969V23.6969ZM15.8366 18.7561L12.9038 20.0004L14.2551 18.4287L15.8366 18.7561ZM30.0413 18.2638L30.9684 18.6385L27.9711 26.0557L27.0439 25.6811L30.0413 18.2638ZM5.28413 21.5435L9.6779 15.1586L14.5825 13.0771L20.1188 14.7933L28.9268 18.3527L26.4309 24.529L22.804 24.5162C21.9731 24.5131 21.1698 24.2672 20.48 23.8068L19.304 23.0204C18.0978 22.2126 16.5935 21.945 15.1799 22.2883L12.927 22.8362C12.5411 22.9304 12.1468 22.7344 11.9877 22.3714C11.8997 22.1703 11.896 21.9471 11.9767 21.7435C12.058 21.5396 12.2139 21.3794 12.4161 21.2939L17.7003 19.0514C17.902 18.9657 18.024 18.7599 18.0026 18.542C17.9814 18.3237 17.8209 18.1429 17.6068 18.1017L12.1327 16.9681C11.974 16.9353 11.8092 16.9814 11.6901 17.0918L6.12991 22.273C5.8456 22.5388 5.32077 22.3963 5.20872 22.0237C5.16018 21.8595 5.18726 21.6844 5.28413 21.5435V21.5435Z"
		fill="black" />
	<rect x="32.2323" y="28.8564" width="4" height="9" transform="rotate(-157.996 32.2323 28.8564)" fill="white" />
	<rect x="27.9712" y="26.0562" width="1" height="8" transform="rotate(-157.996 27.9712 26.0562)" fill="white" />
</g>
<defs>
	<clipPath id="clip0">
		<rect width="32" height="32" fill="white" transform="translate(29.8639 41.6787) rotate(-157.996)" />
	</clipPath>
</defs>

<g clip-path="url(#a)"><path d="m22.96 25.11 3.344-.267 2.81-6.954-6.49-2.622-7.605-2.534-5.858 2.486-4.388 6.855 1.39.562 1.49-1.016.829 1.953.927.375 1.213-1.667 1.587-2.594 1.4-2.131 2.042.286 1.855.75-3.906 1.657-2.327 1.756.74.838.927.374 1.302-.552 1.114-.089 2.042.286 1.854.75 1.854.748 1.855.75Z" fill="#fff"/><path d="M5.162 23.31c.56.226 1.208.106 1.65-.306l.696-.648-.045.162a1.73 1.73 0 0 0 .17 1.33c.234.405.611.696 1.064.815.735.195 1.505-.104 1.932-.774l.53-.96a1.806 1.806 0 0 0 2.004.878l2.253-.548a4.224 4.224 0 0 1 3.332.591l1.176.787c.853.57 1.848.875 2.876.879l3.227.012-.098.242a.5.5 0 0 0 .277.65l1.39.563-.187.463a.5.5 0 0 0 .276.651l4.636 1.874a.5.5 0 0 0 .651-.276l3.747-9.272a.5.5 0 0 0-.276-.651l-4.636-1.873-1.855-.75a.5.5 0 0 0-.65.276l-8.848-3.573-5.75-1.784a.5.5 0 0 0-.344.017l-5.207 2.21a.5.5 0 0 0-.216.177L4.46 20.977c-.27.392-.346.878-.21 1.335.138.456.47.82.91.998Zm26.734-4.297 3.708 1.499-3.372 8.344-3.708-1.498 3.372-8.345ZM8.954 23.697a.736.736 0 0 1-.453-.348.74.74 0 0 1-.073-.567l.47-1.723 3.285-3.06.952.197-1.386 1.613a.491.491 0 0 0-.059.084l-1.92 3.485a.74.74 0 0 1-.816.319Zm6.883-4.94L12.904 20l1.351-1.571 1.582.327Zm14.204-.493.927.375-2.997 7.417-.927-.375 2.997-7.417Zm-24.757 3.28 4.394-6.385 4.904-2.082 5.537 1.716 8.808 3.56-2.496 6.176-3.627-.013a4.202 4.202 0 0 1-2.324-.71l-1.176-.786a5.22 5.22 0 0 0-4.124-.732l-2.253.548a.813.813 0 0 1-.95-1.092.81.81 0 0 1 .44-.45L17.7 19.05a.5.5 0 0 0-.093-.95l-5.474-1.133a.502.502 0 0 0-.443.124l-5.56 5.181c-.284.266-.81.123-.921-.25a.562.562 0 0 1 .075-.48Z"/><path fill="#fff" d="m32.232 28.857-3.708-1.499 3.372-8.344 3.708 1.498zM27.971 26.056l-.927-.374 2.998-7.417.927.374z"/></g><defs><clipPath id="a"><path fill="#fff" transform="rotate(-157.996 18.983 17.936)" d="M0 0h32v32H0z"/></clipPath></defs>
